assets/features/payment-flow/Agribank.svg

<svg width="200" height="200" viewBox="0 0 200 200" fill="none" xmlns="http://www.w3.org/2000/svg">
<rect x="0.5" y="0.5" width="199" height="199" rx="39.5" fill="white"/>
<rect x="0.5" y="0.5" width="199" height="199" rx="39.5" stroke="#8D8D8D"/>
<path fill-rule="evenodd" clip-rule="evenodd" d="M170.714 36.617C170.714 32.964 167.718 30 164.027 30H35.6988C31.9895 30 29 32.964 29 36.617V163.379C29 167.057 31.9895 170 35.6988 170H164.027C167.718 170 170.714 167.057 170.714 163.379V36.617Z" fill="white" stroke="#C4C6C8" stroke-width="0.114674"/>
<path fill-rule="evenodd" clip-rule="evenodd" d="M78.4094 163.318L154.551 163.325C159.682 163.325 163.907 159.158 163.907 154.088L163.926 78.832L78.4094 163.318Z" fill="#00422B"/>
<path fill-rule="evenodd" clip-rule="evenodd" d="M163.945 45.9497C163.945 40.7699 159.708 36.7012 154.576 36.7012H126.556L35.7942 126.48V154.046C35.7942 159.142 39.8983 163.315 45.1479 163.315L72.7094 163.321L163.934 73.1872L163.945 45.9497Z" fill="#AF0B35"/>
<path fill-rule="evenodd" clip-rule="evenodd" d="M45.173 36.6777C39.9262 36.6777 35.8082 40.7355 35.8082 45.9208L35.7957 120.734L120.856 36.6984L45.173 36.6777Z" fill="#00422B"/>
<path fill-rule="evenodd" clip-rule="evenodd" d="M81.644 162.037C81.644 162.037 86.4935 160.098 91.0022 159.329C92.7072 158.95 102.591 156.653 102.082 146.608C101.961 143.994 98.0163 147.317 98.0163 147.317C98.0163 147.317 90.2011 148.404 86.9425 150.409C85.3174 151.351 81.6831 155.334 81.644 162.037Z" fill="#FFDC00" stroke="#9D1D26" stroke-width="0.114674"/>
<path fill-rule="evenodd" clip-rule="evenodd" d="M115.184 129.848C115.184 129.848 117.021 141.226 107.87 144.845C103.978 146.439 98.1471 148.228 97.2449 149.137C97.2449 149.137 95.1636 141.226 101.928 136.474C104.099 134.929 108.552 133.446 111.413 132.416C114.175 131.417 115.184 129.848 115.184 129.848Z" fill="#FFDC00" stroke="#9D1D26" stroke-width="0.114674"/>
<path fill-rule="evenodd" clip-rule="evenodd" d="M119.911 115.777C119.911 115.777 125.62 122.672 119.218 130.573C117.843 132.396 110.995 136.782 109.273 138.825C109.273 138.825 105.857 131.478 109.976 125.498C111.104 123.797 115.003 120.646 116.715 119.4C118.432 118.137 119.911 115.777 119.911 115.777Z" fill="#FFDC00" stroke="#9D1D26" stroke-width="0.114674"/>
<path fill-rule="evenodd" clip-rule="evenodd" d="M112.99 100.758C112.99 100.758 107.644 103.841 111.194 112.637C111.536 113.657 115.682 120.98 115.818 123.009C115.818 123.009 123.226 118.47 120.229 109.215C119.769 107.517 116.315 102.119 112.99 100.758Z" fill="#FFDC00" stroke="#9D1D26" stroke-width="0.114674"/>
<path fill-rule="evenodd" clip-rule="evenodd" d="M99.3373 88.7559C99.3373 88.7559 97.5027 94.304 101.855 99.5209C103.689 101.648 111.915 104.143 115.462 106.739C115.462 106.739 119.801 92.7312 99.3373 88.7559Z" fill="#FFDC00" stroke="#9D1D26" stroke-width="0.114674"/>
<path fill-rule="evenodd" clip-rule="evenodd" d="M87.949 78.832C87.949 78.832 105.742 80.0954 103.35 96.1928C103.35 96.1928 99.3257 93.7008 96.0464 92.3984C94.62 91.6992 87.5207 89.4824 87.949 82.8867C88.0673 81.0738 87.949 78.832 87.949 78.832Z" fill="#FFDC00" stroke="#9D1D26" stroke-width="0.114674"/>
<path fill-rule="evenodd" clip-rule="evenodd" d="M88.2501 63.5361C88.2501 63.5361 81.6229 68.504 84.9229 76.8564C85.5145 78.4398 88.9441 82.9754 90.7645 83.7685C90.7645 83.7685 92.8286 77.9879 94.0887 73.8103C94.552 72.1091 95.8121 65.4543 91.6791 62.8542C89.5032 61.6191 88.2501 63.5361 88.2501 63.5361Z" fill="#FFDC00" stroke="#9D1D26" stroke-width="0.114674"/>
<path fill-rule="evenodd" clip-rule="evenodd" d="M86.8788 68.4802C86.8788 68.4802 81.7436 53.5597 100.146 49.5117C100.146 49.5117 104.256 55.2714 97.5237 61.2552C95.7033 62.9504 88.0443 66.7886 86.8788 68.4802Z" fill="#FFDC00" stroke="#9D1D26" stroke-width="0.114674"/>
<path fill-rule="evenodd" clip-rule="evenodd" d="M115.578 38.169C115.578 38.169 96.4871 37.731 97.2911 54.6255C97.2911 54.6255 109.245 50.9948 112.465 47.4932C114.057 45.6732 115.79 42.2516 115.578 38.169Z" fill="#FFDC00" stroke="#9D1D26" stroke-width="0.114674"/>
</svg>

<svg xmlns="http://www.w3.org/2000/svg" width="200" height="200" fill="none" viewBox="0 0 200 200"><rect width="199" height="199" x=".5" y=".5" fill="#fff" rx="39.5"/><rect width="199" height="199" x=".5" y=".5" stroke="#8d8d8d" rx="39.5"/><path fill="#fff" fill-rule="evenodd" stroke="#c4c6c8" stroke-width=".115" d="M170.714 36.617c0-3.653-2.996-6.617-6.687-6.617H35.699C31.989 30 29 32.964 29 36.617v126.762c0 3.678 2.99 6.621 6.699 6.621h128.328c3.691 0 6.687-2.943 6.687-6.621z" clip-rule="evenodd"/><path fill="#00422b" fill-rule="evenodd" d="m78.41 163.318 76.141.007c5.131 0 9.356-4.167 9.356-9.237l.019-75.256z" clip-rule="evenodd"/><path fill="#af0b35" fill-rule="evenodd" d="M163.945 45.95c0-5.18-4.237-9.249-9.369-9.249h-28.02L35.794 126.48v27.566c0 5.096 4.104 9.269 9.354 9.269l27.561.006 91.225-90.134z" clip-rule="evenodd"/><path fill="#00422b" fill-rule="evenodd" d="M45.173 36.678c-5.247 0-9.365 4.058-9.365 9.243l-.012 74.813 85.06-84.036z" clip-rule="evenodd"/><path fill="#ffdc00" fill-rule="evenodd" stroke="#9d1d26" stroke-width=".115" d="M81.644 162.037s4.85-1.939 9.358-2.708c1.705-.379 11.589-2.676 11.08-12.721-.121-2.614-4.066.709-4.066.709s-7.815 1.087-11.074 3.092c-1.625.942-5.259 4.925-5.298 11.628Z" clip-rule="evenodd"/><path fill="#ffdc00" fill-rule="evenodd" stroke="#9d1d26" stroke-width=".115" d="M115.184 129.848s1.837 11.378-7.314 14.997c-3.892 1.594-9.723 3.383-10.625 4.292 0 0-2.081-7.911 4.683-12.663 2.171-1.545 6.624-3.028 9.485-4.058 2.762-.999 3.771-2.568 3.771-2.568Z" clip-rule="evenodd"/><path fill="#ffdc00" fill-rule="evenodd" stroke="#9d1d26" stroke-width=".115" d="M119.911 115.777s5.709 6.895-.693 14.796c-1.375 1.823-8.223 6.209-9.945 8.252 0 0-3.416-7.347.703-13.327 1.128-1.701 5.027-4.852 6.739-6.098 1.717-1.263 3.196-3.623 3.196-3.623Z" clip-rule="evenodd"/><path fill="#ffdc00" fill-rule="evenodd" stroke="#9d1d26" stroke-width=".115" d="M112.99 100.758s-5.346 3.083-1.796 11.879c.342 1.02 4.488 8.343 4.624 10.372 0 0 7.408-4.539 4.411-13.794-.46-1.698-3.914-7.096-7.239-8.457Z" clip-rule="evenodd"/><path fill="#ffdc00" fill-rule="evenodd" stroke="#9d1d26" stroke-width=".115" d="M99.337 88.756s-1.834 5.548 2.518 10.765c1.834 2.127 10.06 4.622 13.607 7.218 0 0 4.339-14.008-16.125-17.983Z" clip-rule="evenodd"/><path fill="#ffdc00" fill-rule="evenodd" stroke="#9d1d26" stroke-width=".115" d="M87.949 78.832s17.793 1.263 15.401 17.36c0 0-4.024-2.491-7.304-3.794-1.426-.699-8.525-2.916-8.097-9.511.118-1.813 0-4.055 0-4.055Z" clip-rule="evenodd"/><path fill="#ffdc00" fill-rule="evenodd" stroke="#9d1d26" stroke-width=".115" d="M88.25 63.536s-6.627 4.968-3.327 13.32c.591 1.584 4.021 6.12 5.841 6.913 0 0 2.065-5.781 3.325-9.959.463-1.7 1.723-8.356-2.41-10.956-2.176-1.235-3.429.682-3.429.682Z" clip-rule="evenodd"/><path fill="#ffdc00" fill-rule="evenodd" stroke="#9d1d26" stroke-width=".115" d="M86.879 68.48s-5.135-14.92 13.267-18.968c0 0 4.11 5.76-2.622 11.743-1.82 1.695-9.48 5.534-10.645 7.225Z" clip-rule="evenodd"/><path fill="#ffdc00" fill-rule="evenodd" stroke="#9d1d26" stroke-width=".115" d="M115.578 38.169s-19.09-.438-18.287 16.457c0 0 11.954-3.631 15.174-7.133 1.592-1.82 3.325-5.241 3.113-9.324Z" clip-rule="evenodd"/></svg>
